apps/www/public/images/logos/languages/python-icon.svg

<svg width="61" height="61" viewBox="0 0 61 61" fill="none" xmlns="http://www.w3.org/2000/svg">
<path fill-rule="evenodd" clip-rule="evenodd" d="M25.8507 12.3604C27.1186 12.136 28.5596 12.0073 30.0686 12.0003C31.5775 11.9933 33.1508 12.108 34.6671 12.3604C37.0624 12.7596 39.0804 14.5565 39.0804 16.9486V25.3535C39.0804 27.8182 37.1213 29.8389 34.6671 29.8389H25.8507C22.8573 29.8389 20.3366 32.4087 20.3366 35.3221V39.3548H17.3017C14.7365 39.3548 13.2381 37.4929 12.6106 34.8798C11.7643 31.3692 11.8002 29.2712 12.6106 25.909C13.3132 22.9758 15.5595 21.434 18.1247 21.434H21.4373H30.264V20.3126H21.4373V16.9486C21.4373 14.4014 22.1155 13.0203 25.8507 12.3604ZM26.9514 16.3931C26.9514 15.4626 26.2069 14.7059 25.2952 14.7059C24.3801 14.7059 23.6389 15.4626 23.6389 16.3931C23.6389 17.3202 24.3801 18.0699 25.2952 18.0699C26.2069 18.0699 26.9514 17.3202 26.9514 16.3931ZM40.1814 25.3549V21.4353H43.494C46.0625 21.4353 47.2734 23.3566 47.9073 25.9104C48.7897 29.4573 48.8289 32.1162 47.9073 34.8811C47.0152 37.5668 46.0593 39.3562 43.494 39.3562H39.0807H30.2642V40.4775H39.0807V43.8415C39.0807 46.3887 36.8895 47.6835 34.6673 48.3269C31.3243 49.2969 28.6449 49.1485 25.8509 48.3269C23.5176 47.6406 21.4375 46.2336 21.4375 43.8415V35.4366C21.4375 33.0182 23.4359 30.9513 25.8509 30.9513H34.6673C37.6051 30.9513 40.1814 28.3936 40.1814 25.3549ZM36.8791 44.3971C36.8791 43.4699 36.1378 42.7202 35.2228 42.7202C34.3111 42.7202 33.5665 43.4699 33.5665 44.3971C33.5665 45.3275 34.3111 46.0842 35.2228 46.0842C36.1378 46.0842 36.8791 45.3275 36.8791 44.3971Z" fill="#7E7E7E"/>
</svg>

<svg xmlns="http://www.w3.org/2000/svg" width="61" height="61" fill="none" viewBox="0 0 61 61"><path fill="#7e7e7e" fill-rule="evenodd" d="M25.85 12.36A25 25 0 0 1 30.07 12a27.5 27.5 0 0 1 4.598.36c2.395.4 4.413 2.197 4.413 4.589v8.404c0 2.465-1.959 4.486-4.413 4.486h-8.816c-2.994 0-5.514 2.57-5.514 5.483v4.033h-3.035c-2.565 0-4.064-1.862-4.691-4.475-.847-3.51-.81-5.609 0-8.971.702-2.933 2.948-4.475 5.514-4.475h12.139v-1.121h-8.827v-3.364c0-2.548.678-3.929 4.414-4.589m1.101 4.033c0-.93-.744-1.687-1.656-1.687-.915 0-1.656.757-1.656 1.687 0 .927.741 1.677 1.656 1.677.912 0 1.656-.75 1.656-1.677m13.23 8.962v-3.92h3.313c2.569 0 3.78 1.922 4.413 4.475.883 3.547.922 6.206 0 8.971-.892 2.686-1.848 4.475-4.413 4.475h-13.23v1.121h8.817v3.365c0 2.547-2.192 3.842-4.414 4.485-3.343.97-6.022.822-8.816 0-2.333-.686-4.413-2.093-4.413-4.485v-8.405c0-2.419 1.998-4.486 4.413-4.486h8.816c2.938 0 5.514-2.557 5.514-5.596M36.88 44.397c0-.927-.741-1.677-1.656-1.677-.912 0-1.657.75-1.657 1.677 0 .93.745 1.687 1.657 1.687.915 0 1.656-.757 1.656-1.687" clip-rule="evenodd"/></svg>
